src/cmd/sc_showinvalid.svg

<svg viewBox="0 0 16 16" xmlns="http://www.w3.org/2000/svg"><path d="m2 2v12h12v-12zm1 1h2v2h-2zm3 0h4v1.5410156a4 4 0 0 1 1.458984 1.4589844h1.541016v4h-1.541016a4 4 0 0 1 -1.458984 1.458984v1.541016h-4v-1.541016a4 4 0 0 1 -1.4589844-1.458984h-1.5410156v-4h1.5410156a4 4 0 0 1 1.4589844-1.4589844zm5 0h2v2h-2zm-8 8h2v2h-2zm8 0h2v2h-2z" fill="#232629"/><path d="m8 4a4 4 0 0 0 -4 4 4 4 0 0 0 4 4 4 4 0 0 0 4-4 4 4 0 0 0 -4-4zm0 1a3 3 0 0 1 3 3 3 3 0 0 1 -3 3 3 3 0 0 1 -3-3 3 3 0 0 1 3-3zm-1 1-1 1 1 1-1 1 1 1 1-1 1 1 1-1-1-1 1-1-1-1-1 1z" fill="#c7162b"/></svg>

<?xml version="1.0" encoding="UTF-8" standalone="no"?>
<svg
   xmlns:dc="http://purl.org/dc/elements/1.1/"
   xmlns:cc="http://creativecommons.org/ns#"
   xmlns:rdf="http://www.w3.org/1999/02/22-rdf-syntax-ns#"
   xmlns:svg="http://www.w3.org/2000/svg"
   xmlns="http://www.w3.org/2000/svg"
   xmlns:sodipodi="http://sodipodi.sourceforge.net/DTD/sodipodi-0.dtd"
   xmlns:inkscape="http://www.inkscape.org/namespaces/inkscape"
   viewBox="0 0 16 16"
   version="1.1"
   id="svg6"
   sodipodi:docname="sc_showinvalid.svg"
   inkscape:version="0.92.4 (5da689c313, 2019-01-14)">
  <metadata
     id="metadata12">
    <rdf:RDF>
      <cc:Work
         rdf:about="">
        <dc:format>image/svg+xml</dc:format>
        <dc:type
           rdf:resource="http://purl.org/dc/dcmitype/StillImage" />
      </cc:Work>
    </rdf:RDF>
  </metadata>
  <defs
     id="defs10" />
  <sodipodi:namedview
     pagecolor="#ffffff"
     bordercolor="#666666"
     borderopacity="1"
     objecttolerance="10"
     gridtolerance="10"
     guidetolerance="10"
     inkscape:pageopacity="0"
     inkscape:pageshadow="2"
     inkscape:window-width="1920"
     inkscape:window-height="1011"
     id="namedview8"
     showgrid="true"
     inkscape:zoom="41.7193"
     inkscape:cx="2.4768833"
     inkscape:cy="6.2340108"
     inkscape:window-x="1920"
     inkscape:window-y="32"
     inkscape:window-maximized="1"
     inkscape:current-layer="svg6">
    <inkscape:grid
       type="xygrid"
       id="grid822" />
  </sodipodi:namedview>
  <path
     d="m 2,4 v 8 c 0,2 1,2 3,2 h 6 c 2,0 3,0 3,-2 V 4 C 14,2 13,2 11,2 H 5 C 3,2 2,2 2,4 Z M 3,4 C 3,3 4,3 5,3 V 5 H 3 Z M 6,3 h 4 V 4.5410156 C 10.605549,4.8913861 11.108614,5.3944509 11.458984,6 H 13 v 4 H 11.458984 C 11.108614,10.605549 10.605549,11.108614 10,11.458984 V 13 H 6 V 11.458984 C 5.3944509,11.108614 4.8913861,10.605549 4.5410156,10 H 3 V 6 H 4.5410156 C 4.891386,5.3944508 5.3944508,4.891386 6,4.5410156 Z m 5,0 c 1,0 2,0 2,1 v 1 h -2 z m -8,8 h 2 v 2 C 4,13 3,13 3,12 Z m 8,0 h 2 v 1 c 0,1 -1,1 -2,1 z"
     id="path2"
     inkscape:connector-curvature="0"
     style="fill:#232629"
     sodipodi:nodetypes="cccccccccccccccccccccccccccccccccccccccccccccc" />
  <path
     d="m8 4a4 4 0 0 0 -4 4 4 4 0 0 0 4 4 4 4 0 0 0 4-4 4 4 0 0 0 -4-4zm0 1a3 3 0 0 1 3 3 3 3 0 0 1 -3 3 3 3 0 0 1 -3-3 3 3 0 0 1 3-3zm-1 1-1 1 1 1-1 1 1 1 1-1 1 1 1-1-1-1 1-1-1-1-1 1z"
     fill="#c7162b"
     id="path4" />
</svg>
